X:396
T:Walls of Liscarrol, The
R:jig
H:See also #348, #187
D:Harry Bradley: As I carelessly did stray...
Z:id:hn-jig-396
M:6/8
L:1/8
K:Edor
f | edB BAF | ABA FAB | AFA dAF | ABc def |
edB BAF | ABA FAB | AFA dAF | EFE E2 :|
|: ede fdB | BAF DFA | Bcd efg | fed e2f |
gfe fed | BAB d2B | AFA dAF | EFE E2 :|

